src/icons/outline/symbols/link-unlink.svg

<svg width="24" height="24" viewBox="0 0 24 24" fill="none" xmlns="http://www.w3.org/2000/svg">
<g clip-path="url(#clip0_4923_361)">
<path d="M11.7471 17.7207C12.1616 17.7207 12.5049 18.0786 12.5049 18.5098V22.2109C12.5049 22.6421 12.1616 23 11.7471 23C11.3325 23 10.9893 22.6421 10.9893 22.2109V18.5098C10.9893 18.0786 11.3325 17.7207 11.7471 17.7207Z" fill="#3C3B44"/>
<path d="M8.43164 17.9521C8.72485 17.6475 9.20983 17.6474 9.50293 17.9521C9.79613 18.2571 9.79613 18.7624 9.50293 19.0674L8.11816 20.5078C7.96654 20.6655 7.77409 20.7392 7.58203 20.7393C7.38994 20.7393 7.19755 20.6656 7.0459 20.5078C6.75288 20.2029 6.75304 19.6985 7.0459 19.3936L8.43164 17.9521Z" fill="#3C3B44"/>
<path d="M13.9814 17.9521C14.2746 17.6472 14.7605 17.6472 15.0537 17.9521L16.4385 19.3936C16.7314 19.6985 16.7316 20.2029 16.4385 20.5078C16.2868 20.6656 16.0944 20.7393 15.9023 20.7393C15.7104 20.7392 15.5187 20.6653 15.3672 20.5078L13.9814 19.0674C13.6882 18.7624 13.6882 18.2571 13.9814 17.9521Z" fill="#3C3B44"/>
<path d="M5.8125 7.01562H7.60156L7.67871 7.01953C8.05809 7.05921 8.36035 7.39056 8.36035 7.80469C8.3601 8.24614 8.01593 8.59277 7.60156 8.59277H5.77246C4.03364 8.48762 2.59805 10.0544 2.50684 12.0312C2.59783 13.9346 4.06331 15.491 5.73145 15.3965H7.5918C8.00629 15.3965 8.35053 15.7439 8.35059 16.1855C8.35059 16.6272 8.00632 16.9746 7.5918 16.9746H5.58008C3.17383 16.9746 1.12132 14.797 1 12.0312C1.13164 9.10797 3.26484 6.87892 5.8125 7.01562Z" fill="#3C3B44"/>
<path d="M18.2178 7.01562C20.6846 6.88943 22.8684 9.10823 23 11.958C22.8686 14.8079 20.8161 16.9746 18.3896 16.9746H16.3779C15.9634 16.9746 15.6201 16.6272 15.6201 16.1855C15.6202 15.744 15.9635 15.3975 16.3779 15.3975H18.208C19.957 15.4815 21.3826 13.935 21.4736 11.958C21.3825 10.0547 19.9162 8.48762 18.248 8.59277H16.3877C15.9734 8.5926 15.6301 8.24609 15.6299 7.80469C15.6299 7.36312 15.9733 7.0158 16.3877 7.01562H18.2178Z" fill="#3C3B44"/>
<path d="M7.0459 3.53418C7.3391 3.22921 7.82497 3.22921 8.11816 3.53418L9.50293 4.97461C9.79613 5.27958 9.79613 5.78487 9.50293 6.08984C9.35129 6.24752 9.15885 6.32129 8.9668 6.32129C8.77492 6.32123 8.58318 6.24728 8.43164 6.08984L7.0459 4.64844C6.75304 4.34347 6.7529 3.83906 7.0459 3.53418Z" fill="#3C3B44"/>
<path d="M11.7471 1C12.1616 1.00002 12.5049 1.35791 12.5049 1.78906V5.53223C12.5049 5.96338 12.1616 6.32127 11.7471 6.32129C11.3325 6.32129 10.9893 5.96339 10.9893 5.53223V1.78906C10.9893 1.3579 11.3325 1 11.7471 1Z" fill="#3C3B44"/>
<path d="M15.3672 3.53418C15.6604 3.22942 16.1453 3.22928 16.4385 3.53418C16.7315 3.83907 16.7314 4.34345 16.4385 4.64844L15.0537 6.08984C14.9021 6.24756 14.7096 6.32126 14.5176 6.32129C14.3255 6.32129 14.1331 6.24756 13.9814 6.08984C13.6882 5.78487 13.6882 5.27958 13.9814 4.97461L15.3672 3.53418Z" fill="#3C3B44"/>
</g>
<defs>
<clipPath id="clip0_4923_361">
<rect width="24" height="24" fill="white"/>
</clipPath>
</defs>
</svg>

<svg xmlns="http://www.w3.org/2000/svg" width="24" height="24" fill="none" viewBox="0 0 24 24"><path fill="currentColor" d="M11.747 17.72c.415 0 .758.359.758.79v3.7c0 .432-.343.79-.758.79s-.758-.358-.758-.79v-3.7c0-.431.343-.79.758-.79m-3.315.232a.74.74 0 0 1 1.07 0 .817.817 0 0 1 0 1.115l-1.384 1.44a.737.737 0 0 1-1.072 0 .816.816 0 0 1 0-1.113zm5.55 0a.743.743 0 0 1 1.072 0l1.385 1.442a.816.816 0 0 1 0 1.114.736.736 0 0 1-1.072 0l-1.386-1.44a.817.817 0 0 1 0-1.116M5.811 7.016h1.79c.414 0 .758.347.758.789a.773.773 0 0 1-.758.788h-1.83c-1.738-.105-3.174 1.461-3.265 3.438.09 1.904 1.556 3.46 3.224 3.365h1.86c.415 0 .76.348.76.79a.775.775 0 0 1-.76.789H5.58c-2.407 0-4.46-2.178-4.581-4.944.132-2.923 2.265-5.152 4.813-5.015m12.406 0c2.467-.127 4.65 2.092 4.782 4.942-.131 2.85-2.184 5.017-4.61 5.017h-2.012c-.415 0-.758-.348-.758-.79 0-.441.344-.787.758-.787h1.83c1.749.084 3.175-1.463 3.266-3.44-.091-1.903-1.558-3.47-3.226-3.365h-1.86a.77.77 0 0 1-.758-.788c0-.442.343-.79.758-.79zM7.046 3.534a.743.743 0 0 1 1.072 0l1.385 1.44a.817.817 0 0 1 0 1.116.736.736 0 0 1-1.071 0L7.046 4.648a.816.816 0 0 1 0-1.114M11.747 1c.415 0 .758.358.758.79v3.742c0 .431-.343.79-.758.79s-.758-.359-.758-.79V1.79c0-.431.343-.789.758-.789m3.62 2.534a.74.74 0 0 1 1.072 0 .816.816 0 0 1 0 1.114L15.054 6.09a.736.736 0 0 1-1.073 0 .817.817 0 0 1 0-1.115z"/></svg>
